X:1
T:Die schöne Müllerin
T:Wohin?
T:2. Wohin?
T:Wilhelm Müller
T:Franz Schubert
T:Die schöne Müllerin (D.795)
T:OpenScore (CC0)
T:OpenScore (CC0)
T:OpenScore (CC0)
T:OpenScore (CC0)
C:Franz Schubert
Z:OpenScore (CC0)
%%score 1 { 2 ( 3 4 ) }
L:1/8
Q:1/4=65
M:2/4
K:G
V:1 treble nm="Singstimme"
V:2 treble nm="Piano"
V:3 bass nm="Pianoforte"
V:4 bass 
V:1
"^Mäßig" z4 | z2 z B/c/ | d d d d | d>B G B/G/ | D D D/F/ A/F/ | G2 z B/c/ | d d d d | d>B G B/G/ | %8
w: |Ich *|hört' ein Bäch- lein|rau- * schen wohl *|aus dem Fel- * sen- *|quell, hin- *|ab zum Tha- le|rau- * schen so *|
 D D D/F/ A/F/ | G2 z B |{c} B B B A |{A} ^G G z G | A A e e/d/ | c2 z A | B/c/ B/c/ d d | %15
w: frisch und wun- * der- *|hell. Ich|weiss nicht, wie mir|wur- de, nicht,|wer den Rat mir *|gab, ich|muss- * te * auch hin-|
 d>B G B/G/ | D D D/F/ A/F/ | G2 z B/c/ | d d d{e} d/^c/ | d>B G B/G/ | D D D/F/ A/F/ | G2 z B | %22
w: un- * ter mit *|mei- nem Wan- * der- *|stab, ich *|muss- te auch hin- *|un- * ter mit *|mei- nem Wan- * der- *|stab. Hin-|
 c B/ B/ ^A B | G2 E F/G/ | B A/ A/ ^G A | F2 z d | d D D/F/ A/d/ | d2 B d/B/ | %28
w: un- ter und im- mer|wei- ter, und *|im- mer dem Ba- che|nach, und|im- mer hel- * ler *|rausch- te und *|
 A3/2 F/ A/G/ F/ E/ |{E} F2 z d | d D D/F/ A/d/ | d2 B d/B/ | A/d/ f/d/ A/G/ F/ E/ | D2 z2 | %34
w: im- mer hel- * ler der|Bach, und|im- mer hel- * ler *|rausch- te und *|im- * mer * hel- * ler der|Bach.|
 z2 z E | E E E E | A A z z/ A/ | A A ^A3/2 A/ | B2 z e | ^dB e3/2 e/ | ^dB z B | c B ^A B | %42
w: Ist|das denn mei- ne|Stra- sse? O|Bäch- lein sprich, wo-|hin? wo-|hin? _ sprich, wo\-|hin? * Du|hast mit dei\- nem|
 G2 E B |{d} c B ^A B | G2 z B | e E E/G/ B/e/ | e2 c e/c/ | B3/2 G/ B/A/ G/F/ | E2 z G | %49
w: Rau- schen mir|ganz be- rauscht den|Sinn, du|hast mit dei- * nem *|Rau- schen mir *|ganz be- rauscht * den *|Sinn. Was|
 G3/2 G/ A B | ^G A z e | d e d/c/ B/A/ | G2 z B/c/ | d d d{e} d/^c/ | d>B G B/G/ | D D D/F/ A/F/ | %56
w: sag ich denn vom|Rau- schen? das|kann kein Rau- * schen *|sein: Es *|sin- gen wohl die *|Ni- * xen tief *|un- ten ih- * ren *|
 G2 z B/c/ | d d d{e} d/^c/ | d>B G B/G/ | D D D/F/ A/F/ | G2 z!pp! B | c B/ B/ ^A B | G2 E F/G/ | %63
w: Reih'n, es *|sin- gen wohl die *|Ni- * xen tief *|un- ten ih- * ren *|Reih'n. Lass|sin- gen, Ge- sell, lass|rau- schen, und *|
 B =A ^G A | F2 z D | G G G/B/ d/B/ | B2 A e/c/ | B3/2 B/ d/c/ B/A/ | AB z D | G G G/d/ c/B/ | %70
w: wan\- d're fröh- lich|nach! Es|geh'n ja Müh- * len- *|rä- der in *|je- dem kla- * ren *|Bach, * es|geh'n ja Müh- * len- *|
 B2 A/g/ f/e/ | d3/2 B/ d/c/ B/A/ | G2 z B/G/ | D D/ D/ D/F/ A/F/ | G2 D B/G/ | D D D/F/ A/F/ | %76
w: rä- der * in *|je- dem kla- * ren *|Bach. Lass *|sin- gen, Ge- sell, * lass *|rau- schen, und *|wan- d're fröh- * lich *|
 G2 D/F/ A/F/ | G2 d d | d4- | d2 z2 | !fermata!z4 |] %81
w: nach, fröh- * lich *|nach, fröh- lich|nach!|_||
V:2
 (6:4:6(B,/D/B,/D/G/D/ (6:4:6(B,/)D/B,/D/G/D/) | (6:4:6B,/D/B,/D/G/D/ (6:4:6B,/D/B,/D/G/D/ | %2
 (6:4:6B,/D/B,/D/G/D/ (6:4:6C/D/C/D/F/D/ | (6:4:6B,/D/B,/D/G/D/ (6:4:6B,/D/B,/D/G/D/ | %4
 (6:4:6B,/D/B,/D/G/D/ (6:4:6C/D/C/D/F/D/ | (6:4:6B,/D/B,/D/G/D/ (6:4:6B,/D/B,/D/G/D/ | %6
 (6:4:6B,/D/B,/D/G/D/ (6:4:6C/D/C/D/F/D/ | (6:4:6B,/D/B,/D/G/D/ (6:4:6B,/D/B,/D/G/D/ | %8
 (6:4:6B,/D/B,/D/G/D/ (6:4:6C/D/C/D/F/D/ | (6:4:6B,/D/B,/D/G/D/ (6:4:6B,/D/B,/D/G/D/ | %10
 (6:4:6B,/F/B,/F/B/F/ (6:4:6B,/F/B,/F/B/F/ | (6:4:6B,/=F/B,/F/^G/F/ (6:4:6B,/F/B,/F/G/F/ | %12
 (6:4:6C/E/C/E/A/E/ (6:4:6D/E/D/E/B/E/ | (6:4:6C/E/C/E/A/E/ (6:4:6C/D/C/D/A/D/ | %14
 (6:4:6B,/D/B,/D/G/D/ (6:4:6C/D/C/D/F/D/ | (6:4:6B,/D/B,/D/G/D/ (6:4:6B,/D/B,/D/G/D/ | %16
 (6:4:6B,/D/B,/D/G/D/ (6:4:6C/D/C/D/F/D/ | (6:4:6B,/D/B,/D/G/D/ (6:4:6B,/D/B,/D/G/D/ | %18
 (6:4:6B,/D/B,/D/G/D/ (6:4:6C/D/C/D/F/D/ | (6:4:6B,/D/B,/D/G/D/ (6:4:6B,/D/B,/D/G/D/ | %20
 (6:4:6B,/D/B,/D/G/D/ (6:4:6C/D/C/D/F/D/ | (6:4:6B,/D/B,/D/G/D/ (6:4:6B,/D/B,/D/G/D/ | %22
[K:bass] (6:4:6F,/^D/F,/D/F/D/ (6:4:6F,/D/F,/D/F/D/ | (6:4:6G,/E/G,/E/G/E/ (6:4:6G,/E/G,/E/G/E/ | %24
 (6:4:6E,/^C/E,/C/E/C/ (6:4:6E,/C/E,/C/E/C/ | (6:4:6D,/D/D,/D/F/D/ (6:4:6D,/D/D,/D/F/D/ | %26
 (6:4:6F,/A,/F,/A,/D/A,/ (6:4:6F,/A,/F,/A,/D/A,/ | %27
 (6:4:6E,/B,/E,/B,/D/B,/ (6:4:6E,/B,/E,/B,/D/B,/ | %28
 (6:4:6F,/A,/F,/A,/D/A,/ (6:4:6G,/A,/G,/A,/^C/A,/ | %29
"_cresc." (6:4:6F,/A,/F,/A,/D/A,/ (6:4:6F,/A,/F,/A,/D/A,/ | %30
 (6:4:6F,/A,/F,/A,/D/A,/ (6:4:6F,/A,/F,/A,/D/A,/ | %31
!<(! (6:4:6E,/B,/E,/B,/D/B,/!<)!!>(! (6:4:6E,/B,/E,/B,/D/B,/!>)! | %32
 (6:4:6F,/A,/F,/A,/D/A,/ (6:4:6G,/A,/G,/A,/^C/A,/ | %33
 (6:4:6F,/A,/F,/A,/D/A,/ (6:4:6F,/A,/F,/A,/D/A,/ | %34
[K:treble] (6:4:6^G,/D/G,/D/E/D/ (6:4:6G,/D/G,/D/E/D/ | %35
 (6:4:6^G,/D/G,/D/E/D/ (6:4:6G,/D/G,/D/E/D/ | (6:4:6A,/E/A,/E/A/E/ (6:4:6A,/E/A,/E/A/E/ | %37
 (6:4:6A,/E/A,/E/A/E/ (6:4:6^A,/E/A,/E/^A/E/ | (6:4:6B,/^D/B,/D/B/D/ (6:4:6^A,/E/A,/E/^A/E/ | %39
 (6:4:6B,/^D/B,/D/B/D/ (6:4:6^A,/E/A,/E/^A/E/ | (6:4:6B,/^D/B,/D/B/D/ (6:4:6B,/D/B,/D/B/D/ | %41
 (6:4:6F,/^D/F,/D/F/D/ (6:4:6F,/D/F,/D/F/D/ | (6:4:6G,/E/G,/E/G/E/ (6:4:6G,/E/G,/E/G/E/ | %43
 (6:4:6F,/^D/F,/D/F/D/ (6:4:6F,/D/F,/D/F/D/ | (6:4:6G,/E/G,/E/G/E/ (6:4:6G,/E/G,/E/G/E/ | %45
 (6:4:6G,/B,/G,/B,/E/B,/ (6:4:6G,/B,/G,/B,/E/B,/ | (6:4:6F,/C/F,/C/E/C/ (6:4:6F,/C/F,/C/E/C/ | %47
!>(! (6:4:6G,/B,/G,/B,/E/B,/ (6:4:6A,/B,/A,/B,/^D/B,/!>)! | %48
 (6:4:6G,/B,/G,/B,/E/B,/ (6:4:6G,/B,/G,/B,/E/B,/ | %49
 (6:4:6G,/B,/G,/B,/E/B,/ (6:4:6G,/B,/G,/B,/E/B,/ | (6:4:6C/D/C/D/A/D/ (6:4:6C/D/C/D/A/D/ | %51
 (6:4:6C/D/C/D/F/D/ (6:4:6C/D/C/D/F/D/ | (6:4:6B,/D/B,/D/G/D/ (6:4:6B,/D/B,/D/G/D/ | %53
 (6:4:6B,/D/B,/D/G/D/ (6:4:6C/D/C/D/F/D/ | (6:4:6B,/D/B,/D/G/D/ (6:4:6B,/D/B,/D/G/D/ | %55
 (6:4:6B,/D/B,/D/G/D/ (6:4:6C/D/C/D/F/D/ | (6:4:6B,/D/B,/D/G/D/ (6:4:6B,/D/B,/D/G/D/ | %57
 (6:4:6B,/D/B,/D/G/D/ (6:4:6C/D/C/D/F/D/ | (6:4:6B,/D/B,/D/G/D/ (6:4:6B,/D/B,/D/G/D/ | %59
 (6:4:6B,/D/B,/D/G/D/ (6:4:6C/D/C/D/F/D/ | (6:4:6B,/D/B,/D/G/D/ (6:4:6B,/D/B,/D/G/D/ | %61
[K:bass]!pp! (6:4:6F,/^D/F,/D/F/D/ (6:4:6F,/D/F,/D/F/D/ | %62
 (6:4:6G,/E/G,/E/G/E/ (6:4:6G,/E/G,/E/G/E/ | (6:4:6E,/^C/E,/C/E/C/ (6:4:6E,/C/E,/C/E/C/ | %64
 (6:4:6F,/D/F,/D/F/D/ (6:4:6F,/D/F,/D/F/D/ |[K:treble] (6:4:6B,/D/B,/D/G/D/ (6:4:6B,/D/B,/D/G/D/ | %66
 (6:4:6A,/E/A,/E/G/E/!<(! (6:4:6A,/E/A,/E/G/!mf!E/!<)! | %67
!>(! (6:4:6B,/D/B,/D/G/D/!>)!!p! (6:4:6C/D/C/D/F/D/ | (6:4:6B,/D/B,/D/G/D/ (6:4:6B,/D/B,/D/G/D/ | %69
 (6:4:6B,/D/B,/D/G/D/ (6:4:6B,/D/B,/D/G/D/ | (6:4:6A,/E/A,/E/G/E/ (6:4:6A,/E/A,/E/G/E/ | %71
 (6:4:6B,/D/B,/D/G/D/ (6:4:6C/D/C/D/F/D/ | (6:4:6B,/D/B,/D/G/D/ (6:4:6B,/D/B,/D/G/D/ | %73
"_dim." (6:4:6B,/D/B,/D/G/D/ (6:4:6C/D/C/D/F/D/ | (6:4:6B,/D/B,/D/G/D/ (6:4:6B,/D/B,/D/G/D/ | %75
 (6:4:6B,/D/B,/D/G/D/ (6:4:6C/D/C/D/F/!pp!D/ | (6:4:6B,/D/B,/D/G/D/ (6:4:6C/D/C/D/F/D/ | %77
 (6:4:6B,/D/B,/D/G/D/ (6:4:6C/D/C/D/F/D/ | (6:4:6B,/D/B,/D/G/D/ (6:4:6B,/D/B,/D/G/D/ | %79
 (6:4:6B,/D/B,/D/G/D/ (6:4:6B,/D/B,/D/G/(D/ | !fermata![B,DG]4) |] %81
V:3
!pp! z D,2 D,- | D, D,2 D,- | D, D,2 D,- | D, D,2 D,- | D, D,2 D,- | D, D,2 D,- | D, D,2 D,- | %7
 D, D,2 D,- | D, D,2 D,- | D, D,2 D, | (^D,,^D,D,,D,) | (=D,,=D,D,,D,) | (C,,C,^G,,,^G,,) | %13
 (A,,,A,,F,,D,-) | D, D,2 D,- | D, D,2 D,- | D, D,2 D,- | D, D,2 D,- | D, D,2 D,- | D, D,2 D,- | %20
 D, D,2 D,- | D, D,2 D, | (C,B,,^A,,B,,) | (G,,2 E,,) (F,,/G,,/ | (B,,)A,,^G,,A,,) | (F,,2 D,,) z | %26
 (F,,,F,,) (F,,,F,,) | (G,,,G,,) (G,,,G,,) | (A,,,A,,) (A,,,A,,) | (D,,A,,) (D,,A,,) | %30
 (F,,,F,,) (F,,,F,,) | (G,,,G,,) (G,,,G,,) | (A,,,A,, A,,,A,,) | (D,,A,, D,,A,,) | %34
!pp! (B,,,B,,B,,,B,,) | (B,,,B,,B,,,B,,) | (C,,C,C,,C,) | (C,,C,C,,C,) | (B,,,B,,C,,C,) | %39
 (B,,,B,,C,,C,) | (B,,,B,,B,,,B,,) | (C,B,,^A,,B,,) | (G,,2 E,,) (B,, |{D,} (C,)B,,^A,,B,,) | %44
 G,,2 E,, z | (G,,,G,,G,,,G,,) | (A,,,A,,A,,,A,,) | (B,,,B,,B,,,B,,) | (E,,E,E,,E,) | %49
 (E,,E,E,,E,) | (F,,D,F,,D,) | (D,,D,D,,D,-) | D, D,2 D,- |!pp! D, D,2 D,- | D, D,2 D,- | %55
 D, D,2 D,- | D, D,2 D,- | D, D,2 D,- | D, D,2 D,- | D, D,2 D, | D, D,2 (D, | (C,)B,,^A,,B,,) | %62
 (G,,2 E,,) (F,,/G,,/ | (B,,)=A,,^G,,A,,) | (F,,2 D,,) z |!p! (B,,,B,,B,,,B,,) | (C,,C,C,,C,) | %67
 (D,,D,D,,D,) | (G,,D,G,,D,) | (B,,,B,,B,,,B,,) | (C,,C,C,,C,) | (D,,D,D,,D,-) | D, D,2 D,- | %73
 D, D,2 D,- | D, D,2 D,- | D, D,2 D,- | D, D,2 D,- | D, D,2 D,- | D, D,2 D,- | D, D,2 (D, | %80
 [G,,D,]4) |] %81
V:4
 G,,2 G,,2 | G,,2 G,,2 | G,,2 G,,2 | G,,2 G,,2 | G,,2 G,,2 | G,,2 G,,2 | G,,2 G,,2 | G,,2 G,,2 | %8
 G,,2 G,,2 | G,,2 G,,2 | x4 | x4 | x4 | x4 | G,,2 G,,2 | G,,2 G,,2 | G,,2 G,,2 | G,,2 G,,2 | %18
 G,,2 G,,2 | G,,2 G,,2 | G,,2 G,,2 | G,,2 G,,2 | x4 | x4 | x4 | x4 | x4 | x4 | x4 | x4 | x4 | x4 | %32
 x4 | x4 | x4 | x4 | x4 | x4 | x4 | x4 | x4 | x4 | x4 | x4 | x4 | x4 | x4 | x4 | x4 | x4 | x4 | %51
 x4 | G,,2 G,,2 | G,,2 G,,2 | G,,2 G,,2 | G,,2 G,,2 | G,,2 G,,2 | G,,2 G,,2 | G,,2 G,,2 | %59
 G,,2 G,,2 | G,,2 G,,2 | x4 | x4 | x4 | x4 | x4 | x4 | x4 | x4 | x4 | x4 | x4 | G,,2 G,,2 | %73
 G,,2 G,,2 | G,,2 G,,2 | G,,2 G,,2 | G,,2 G,,2 | G,,2 G,,2 | G,,2 G,,2 | G,,2 G,,2 | x4 |] %81

